Sources/FrostedUI/Resources/Icons.xcassets/trash24.imageset/trash-24.svg

<svg width="24" height="24" viewBox="0 0 24 24" fill="none" xmlns="http://www.w3.org/2000/svg" data-fui-icon="true">
  <path
    d="M12.4678 1C14.152 1.00003 15.5978 2.20009 15.9082 3.85547L16.123 5H21C21.4142 5 21.75 5.33579 21.75 5.75C21.75 6.16421 21.4142 6.5 21 6.5H20.1797L18.7539 20.9277C18.6549 22.6499 17.2296 24 15.5 24H7.5C5.7704 24 4.34507 22.6499 4.24609 20.9277L2.82031 6.5H2C1.58579 6.5 1.25 6.16421 1.25 5.75C1.25 5.33579 1.58579 5 2 5H7.87695L8.0918 3.85547C8.40218 2.20009 9.848 1.00003 11.5322 1H12.4678ZM5.73926 20.7803L5.74219 20.8203C5.78512 21.7601 6.55919 22.5 7.5 22.5H15.5C16.4408 22.5 17.2149 21.7601 17.2578 20.8203C17.2584 20.8071 17.2594 20.7935 17.2607 20.7803L18.6729 6.5H4.32715L5.73926 20.7803ZM11.5322 2.5C10.5698 2.50003 9.74377 3.18591 9.56641 4.13184L9.40332 5H14.5967L14.4336 4.13184C14.2562 3.18591 13.4302 2.50003 12.4678 2.5H11.5322Z"
    fill="currentColor"
  />
</svg>

<svg xmlns="http://www.w3.org/2000/svg" width="24" height="24" fill="none" data-fui-icon="true" viewBox="0 0 24 24"><path fill="currentColor" d="M12.468 1a3.5 3.5 0 0 1 3.44 2.855L16.123 5H21a.75.75 0 0 1 0 1.5h-.82l-1.426 14.428A3.26 3.26 0 0 1 15.5 24h-8a3.26 3.26 0 0 1-3.254-3.072L2.82 6.5H2A.75.75 0 0 1 2 5h5.877l.215-1.145A3.5 3.5 0 0 1 11.532 1zM5.739 20.78l.003.04A1.76 1.76 0 0 0 7.5 22.5h8a1.76 1.76 0 0 0 1.76-1.72L18.674 6.5H4.327zM11.532 2.5a2 2 0 0 0-1.966 1.632L9.403 5h5.194l-.163-.868A2 2 0 0 0 12.468 2.5z"/></svg>
